svg/Pictogram/pictograms-nps-misc-rattlesnakes.svg

<svg xmlns="http://www.w3.org/2000/svg" viewBox="0 0 256 256"><path d="m0 0c0-.541-.439-.981-.979-.981h-7.522c-.541 0-.981.44-.981.981v7.521c0 .542.44.982.981.982h7.522c.54 0 .979-.44.979-.982v-7.521" fill="#fff" transform="matrix(25.90569 0 0-25.90569 250.84 225.38)"/><path d="m0 0c0-.652-.527-1.182-1.179-1.182h-7.521c-.653 0-1.182.53-1.182 1.182v7.521c0 .653.529 1.182 1.182 1.182h7.521c.652 0 1.179-.529 1.179-1.182v-7.521" transform="matrix(25.90569 0 0-25.90569 256 225.38)"/><g fill="#fff"><path d="m0 0h.451v.171l-.401-.002v.403h-.168v-.451l-.207-.206.119-.118.206.203" transform="matrix(25.90569 0 0-25.90569 220.41 33.14)"/><path d="m0 0c-.055.053-.141.053-.193 0-.054-.055-.053-.141 0-.193l.416-.416c.054-.053.14-.053.193 0 .054.054.053.14 0 .193l-.416.416" transform="matrix(25.90569 0 0-25.90569 52.625 189.86)"/><path d="m0 0c-.053.053-.14.053-.193-.002-.053-.053-.053-.139.0001-.193l.417-.416c.052-.053.138-.053.193.002.053.052.053.138-.002.191l-.416.418" transform="matrix(25.90569 0 0-25.90569 43.32 199.12)"/><path d="m0 0c.041-.006.084.006.115.037.053.055.053.141 0 .193l-.371.37c-.054.054-.14.054-.193 0-.035-.036-.047-.084-.035-.129l.117-.36.367-.111" transform="matrix(25.90569 0 0-25.90569 41.29 224.67)"/><path d="m0 0l-.215-.218c-.067-.074-.109-.174-.109-.283 0-.117.048-.223.124-.299l1.24-1.24c.398-.398.645-.949.645-1.557 0-1.216-.986-2.203-2.202-2.203-1.216 0-2.203.987-2.203 2.203l.005 3.01c0 .746-.604 1.352-1.352 1.352-.746 0-1.352-.606-1.352-1.352 0-.373.15-.711.397-.957l1.01-1.01c.207-.205.334-.49.334-.804 0-.315-.127-.6-.334-.805l-.517-.518-.503.504.528.52c.069.076.11.176.11.285 0 .115-.047.223-.124.299l-1.082 1.068c-.343.371-.554.869-.554 1.416 0 1.151.933 2.082 2.084 2.082 1.149 0 2.082-.931 2.082-2.082l-.002-3.01c0-.816.66-1.476 1.476-1.476.815 0 1.477.66 1.477 1.476 0 .407-.166.776-.434 1.043l-1.232 1.241c-.207.207-.334.49-.334.804 0 .315.127.6.334.807l.312.312c.02.02.032.047.032.077 0 .025-.008.048-.024.068l-.166.191c-.019.028-.031.061-.031.098 0 0-.111.28.913.528.147.035.315.026.428-.087l.265-.229c.11-.115.117-.283.078-.429-.271-1.019-.548-.902-.548-.902-.037.0001-.071.012-.098.033l-.187.171c-.02.016-.042.023-.068.024-.029.0001-.057-.001-.077-.029l-.123-.124" transform="matrix(25.90569 0 0-25.90569 186.58 75.94)"/></g></svg>

<?xml version="1.0" encoding="UTF-8" standalone="no"?>
<!-- Created with Inkscape (http://www.inkscape.org/) -->
<svg
   xmlns:dc="http://purl.org/dc/elements/1.1/"
   xmlns:cc="http://creativecommons.org/ns#"
   xmlns:rdf="http://www.w3.org/1999/02/22-rdf-syntax-ns#"
   xmlns:svg="http://www.w3.org/2000/svg"
   xmlns="http://www.w3.org/2000/svg"
   xmlns:sodipodi="http://sodipodi.sourceforge.net/DTD/sodipodi-0.dtd"
   xmlns:inkscape="http://www.inkscape.org/namespaces/inkscape"
   width="256"
   height="256"
   id="svg5294"
   sodipodi:version="0.32"
   inkscape:version="0.46"
   version="1.0"
   sodipodi:docname="pictograms-nps-misc-rattlesnakes-2.svg"
   inkscape:output_extension="org.inkscape.output.svg.inkscape">
  <defs
     id="defs5296">
    <inkscape:perspective
       sodipodi:type="inkscape:persp3d"
       inkscape:vp_x="0 : 526.18109 : 1"
       inkscape:vp_y="0 : 1000 : 0"
       inkscape:vp_z="744.09448 : 526.18109 : 1"
       inkscape:persp3d-origin="372.04724 : 350.78739 : 1"
       id="perspective5302" />
  </defs>
  <sodipodi:namedview
     id="base"
     pagecolor="#ffffff"
     bordercolor="#666666"
     borderopacity="1.0"
     gridtolerance="10000"
     guidetolerance="10"
     objecttolerance="10"
     inkscape:pageopacity="0.0"
     inkscape:pageshadow="2"
     inkscape:zoom="0.98994949"
     inkscape:cx="112.80911"
     inkscape:cy="62.857143"
     inkscape:document-units="px"
     inkscape:current-layer="layer1"
     showgrid="false"
     inkscape:window-width="725"
     inkscape:window-height="674"
     inkscape:window-x="1"
     inkscape:window-y="309" />
  <metadata
     id="metadata5299">
    <rdf:RDF>
      <cc:Work
         rdf:about="">
        <dc:format>image/svg+xml</dc:format>
        <dc:type
           rdf:resource="http://purl.org/dc/dcmitype/StillImage" />
      </cc:Work>
    </rdf:RDF>
  </metadata>
  <g
     inkscape:label="Layer 1"
     inkscape:groupmode="layer"
     id="layer1">
    <g
       id="g8246"
       transform="matrix(25.905687,0,0,-25.905687,250.83959,225.37948)">
      <path
         d="M 0,0 C 0,-0.541 -0.439,-0.981 -0.979,-0.981 L -8.501,-0.981 C -9.042,-0.981 -9.482,-0.541 -9.482,0 L -9.482,7.521 C -9.482,8.063 -9.042,8.503 -8.501,8.503 L -0.979,8.503 C -0.439,8.503 0,8.063 0,7.521 L 0,0 z"
         style="fill:#ffffff;fill-opacity:1;fill-rule:nonzero;stroke:none"
         id="path8248" />
    </g>
    <g
       id="g8250"
       transform="matrix(25.905687,0,0,-25.905687,256,225.37948)">
      <path
         d="M 0,0 C 0,-0.652 -0.527,-1.182 -1.179,-1.182 L -8.7,-1.182 C -9.353,-1.182 -9.882,-0.652 -9.882,0 L -9.882,7.521 C -9.882,8.174 -9.353,8.703 -8.7,8.703 L -1.179,8.703 C -0.527,8.703 0,8.174 0,7.521 L 0,0 z"
         style="fill:#000000;fill-opacity:1;fill-rule:nonzero;stroke:none"
         id="path8252" />
    </g>
    <g
       id="g8254"
       transform="matrix(25.905687,0,0,-25.905687,220.40579,33.136275)">
      <path
         d="M 0,0 L 0.451,0 L 0.451,0.171 L 0.05,0.169 L 0.05,0.572 L -0.118,0.572 L -0.118,0.121 L -0.325,-0.085 L -0.206,-0.203 L 0,0 z"
         style="fill:#ffffff;fill-opacity:1;fill-rule:nonzero;stroke:none"
         id="path8256" />
    </g>
    <g
       id="g8258"
       transform="matrix(25.905687,0,0,-25.905687,52.624813,189.86009)">
      <path
         d="M 0,0 C -0.055,0.053 -0.141,0.053 -0.193,0 C -0.247,-0.055 -0.246,-0.141 -0.193,-0.193 L 0.223,-0.609 C 0.277,-0.662 0.363,-0.662 0.416,-0.609 C 0.47,-0.555 0.469,-0.469 0.416,-0.416 L 0,0 z"
         style="fill:#ffffff;fill-opacity:1;fill-rule:nonzero;stroke:none"
         id="path8260" />
    </g>
    <g
       id="g8262"
       transform="matrix(25.905687,0,0,-25.905687,43.317003,199.11899)">
      <path
         d="M 0,0 C -0.053,0.053 -0.14,0.053 -0.193,-0.002 C -0.246,-0.055 -0.246,-0.141 -0.192,-0.195 L 0.225,-0.611 C 0.277,-0.664 0.363,-0.664 0.418,-0.609 C 0.471,-0.557 0.471,-0.471 0.416,-0.418 L 0,0 z"
         style="fill:#ffffff;fill-opacity:1;fill-rule:nonzero;stroke:none"
         id="path8264" />
    </g>
    <g
       id="g8266"
       transform="matrix(25.905687,0,0,-25.905687,41.291178,224.66987)">
      <path
         d="M 0,0 C 0.041,-0.006 0.084,0.006 0.115,0.037 C 0.168,0.092 0.168,0.178 0.115,0.23 L -0.256,0.6 C -0.31,0.654 -0.396,0.654 -0.449,0.6 C -0.484,0.564 -0.496,0.516 -0.484,0.471 L -0.367,0.111 L 0,0 z"
         style="fill:#ffffff;fill-opacity:1;fill-rule:nonzero;stroke:none"
         id="path8268" />
    </g>
    <g
       id="g8270"
       transform="matrix(25.905687,0,0,-25.905687,186.58063,75.940138)">
      <path
         d="M 0,0 L -0.215,-0.218 C -0.282,-0.292 -0.324,-0.392 -0.324,-0.501 C -0.324,-0.618 -0.276,-0.724 -0.2,-0.8 L 1.04,-2.04 C 1.438,-2.438 1.685,-2.989 1.685,-3.597 C 1.685,-4.813 0.699,-5.8 -0.517,-5.8 C -1.733,-5.8 -2.72,-4.813 -2.72,-3.597 L -2.715,-0.589 C -2.715,0.157 -3.319,0.763 -4.067,0.763 C -4.813,0.763 -5.419,0.157 -5.419,-0.589 C -5.419,-0.962 -5.269,-1.3 -5.022,-1.546 L -4.015,-2.554 C -3.808,-2.759 -3.681,-3.044 -3.681,-3.358 C -3.681,-3.673 -3.808,-3.958 -4.015,-4.163 L -4.532,-4.681 L -5.035,-4.177 L -4.507,-3.657 C -4.438,-3.581 -4.397,-3.481 -4.397,-3.372 C -4.397,-3.257 -4.444,-3.149 -4.521,-3.073 L -5.603,-2.005 C -5.946,-1.634 -6.157,-1.136 -6.157,-0.589 C -6.157,0.562 -5.224,1.493 -4.073,1.493 C -2.924,1.493 -1.991,0.562 -1.991,-0.589 L -1.993,-3.597 C -1.993,-4.413 -1.333,-5.073 -0.517,-5.073 C 0.298,-5.073 0.96,-4.413 0.96,-3.597 C 0.96,-3.19 0.794,-2.821 0.526,-2.554 L -0.706,-1.313 C -0.913,-1.106 -1.04,-0.823 -1.04,-0.509 C -1.04,-0.194 -0.913,0.091 -0.706,0.298 L -0.394,0.61 C -0.374,0.63 -0.362,0.657 -0.362,0.687 C -0.362,0.712 -0.37,0.735 -0.386,0.755 L -0.552,0.946 C -0.571,0.974 -0.583,1.007 -0.583,1.044 C -0.583,1.044 -0.694,1.324 0.33,1.572 C 0.477,1.607 0.645,1.598 0.758,1.485 L 1.023,1.256 C 1.133,1.141 1.14,0.973 1.101,0.827 C 0.83,-0.192 0.553,-0.075 0.553,-0.075 C 0.516,-0.074 0.482,-0.063 0.455,-0.042 L 0.268,0.129 C 0.248,0.145 0.226,0.152 0.2,0.153 C 0.171,0.154 0.143,0.143 0.123,0.124 L 0,0"
         style="fill:#ffffff;fill-opacity:1;fill-rule:nonzero;stroke:none"
         id="path8272" />
    </g>
  </g>
</svg>
